fs/clock_pause_24_regular.svg

<svg viewBox="0 0 24 24" fill="none" xmlns="http://www.w3.org/2000/svg" height="1em" width="1em">
  <path d="M22 12C22 6.478 17.523 2 12 2C6.477 2 2 6.478 2 12C2 12.2628 2.01014 12.5232 2.03005 12.7809C2.51375 12.3226 3.06786 11.9379 3.67448 11.6446C3.86129 7.2138 7.52406 3.667 12 3.667C16.595 3.667 20.333 7.405 20.333 12C20.333 16.4759 16.7862 20.1387 12.3554 20.3255C12.0621 20.9321 11.6774 21.4863 11.2191 21.97C11.4768 21.9899 11.7372 22 12 22C17.523 22 22 17.522 22 12ZM6.5 23C9.53757 23 12 20.5376 12 17.5C12 14.4624 9.53757 12 6.5 12C3.46243 12 1 14.4624 1 17.5C1 20.5376 3.46243 23 6.5 23ZM5 15V20C5 20.2761 4.77614 20.5 4.5 20.5C4.22386 20.5 4 20.2761 4 20V15C4 14.7239 4.22386 14.5 4.5 14.5C4.77614 14.5 5 14.7239 5 15ZM9 15V20C9 20.2761 8.77614 20.5 8.5 20.5C8.22386 20.5 8 20.2761 8 20V15C8 14.7239 8.22386 14.5 8.5 14.5C8.77614 14.5 9 14.7239 9 15ZM11.75 6C12.1295 6 12.4435 6.28233 12.4931 6.64827L12.5 6.75V12H15.75C16.164 12 16.5 12.336 16.5 12.75C16.5 13.1295 16.2177 13.4435 15.8517 13.4931L15.75 13.5H11.75C11.3705 13.5 11.0565 13.2177 11.0069 12.8517L11 12.75V6.75C11 6.336 11.336 6 11.75 6Z" fill="#212121"/>
</svg>

<svg viewBox="0 0 24 24" fill="none" xmlns="http://www.w3.org/2000/svg" height="1em" width="1em">
  <path d="M22 12c0-5.522-4.477-10-10-10S2 6.478 2 12c0 .263.01.523.03.78a6.515 6.515 0 0 1 1.644-1.135C3.861 7.214 7.524 3.667 12 3.667c4.595 0 8.333 3.738 8.333 8.333 0 4.476-3.547 8.139-7.978 8.326a6.516 6.516 0 0 1-1.136 1.644c.258.02.518.03.781.03 5.523 0 10-4.478 10-10ZM6.5 23a5.5 5.5 0 1 0 0-11 5.5 5.5 0 0 0 0 11ZM5 15v5a.5.5 0 0 1-1 0v-5a.5.5 0 0 1 1 0Zm4 0v5a.5.5 0 0 1-1 0v-5a.5.5 0 0 1 1 0Zm2.75-9a.75.75 0 0 1 .743.648l.007.102V12h3.25a.75.75 0 0 1 .102 1.493l-.102.007h-4a.75.75 0 0 1-.743-.648L11 12.75v-6a.75.75 0 0 1 .75-.75Z" fill="#212121"/>
</svg>
